X:613
T:Highland Widow's Lament, The
B:Loesberg, Scottish Songs of Robert Burns
Z:Nigel Gatherer
L:1/8
M:4/4
K:A
A2 | A2 A2 G2 GG | F2 F2 E3 c |
c3 B B2 ce | f4 e2 e2 | e3 f c3 B |
A3 B/c/ c3 A | A2 E2 E>FAE | F4 E2 |]
<end>
<start>
